X:593
T:Ballinasloe Fair
R:reel
Z:id:hn-reel-593
M:C|
K:Ador
AGAB cBcA|GECE GECE|~A3B cBca|1 gedB cAdc:|2 gedB cdef||
gc~c2 gcac|gc~c2 Bcde|gc~c2 agab|gedB cdef|
gc~c2 ac~c2|gc~c2 BABc|~A3B cBca|gedB cdef||
g2gf gbaf|gc~c2 Bcde|gc~c2 agab|gedB cdef|
gc~c2 gcac|gc~c2 BABc|~A3B cBca|gedB cABc||
